packages/web-icons/svgs/checkbox_checked.svg

<?xml version="1.0" encoding="UTF-8"?>
<svg width="48px" height="48px" viewBox="0 0 48 48" version="1.1" xmlns="http://www.w3.org/2000/svg">
  <!-- Generator: Sketch 41.2 (35397) - http://www.bohemiancoding.com/sketch -->
  <title>checkbox_checked</title>
  <desc>Created with Sketch.</desc>
  <defs></defs>
  <g id="Page-1" stroke="none" stroke-width="1" fill="none" fill-rule="evenodd">
    <g id="checkbox_checked" fill="#000000">
      <g id="레이어_1">
        <path d="M0,0 L0,48 L48,48 L48,0 L0,0 Z M45,45 L3,45 L3,3 L45,3 L45,45 Z M36,10.5 L21,25.5 L12,16.5 L6,22.5 L21,37.5 L42,16.5 L36,10.5 Z" id="Shape"></path>
      </g>
    </g>
  </g>
</svg>

<svg viewBox="0 0 48 48" xmlns="http://www.w3.org/2000/svg" class="ridi_icon"><path d="M0 0v48h48V0H0zm45 45H3V3h42v42zm-9-34.5l-15 15-9-9-6 6 15 15 21-21-6-6z"/></svg>
